res/skins/LateNight/style/clipping_micAux.svg

<?xml version="1.0" encoding="UTF-8"?>
<!-- Created with Inkscape (http://www.inkscape.org/) -->
<svg id="svg17740" width="10" height="12" version="1.1" xmlns="http://www.w3.org/2000/svg" xmlns:cc="http://creativecommons.org/ns#" xmlns:dc="http://purl.org/dc/elements/1.1/" xmlns:rdf="http://www.w3.org/1999/02/22-rdf-syntax-ns#">
 <metadata id="metadata17745">
  <rdf:RDF>
   <cc:Work rdf:about="">
    <dc:format>image/svg+xml</dc:format>
    <dc:type rdf:resource="http://purl.org/dc/dcmitype/StillImage"/>
    <dc:title/>
   </cc:Work>
  </rdf:RDF>
 </metadata>
 <rect id="rect12208" width="10" height="12" color="#000000" fill="#0f0f0f"/>
 <path id="rect18271-8" d="m2 2h6v1h-6z" color="#000000" fill="#4c1616"/>
 <path id="rect18271-0" d="m2 4h6v1h-6z" color="#000000" fill="#4c1616"/>
 <path id="rect18271-8-1" d="m2 6h6v1h-6z" color="#000000" fill="#4c1616"/>
 <path id="rect18271-0-7" d="m2 8h6v1h-6z" color="#000000" fill="#4c1616"/>
 <path id="rect18271-8-1-9" d="m2 10h6v1h-6z" color="#000000" fill="#4c1616"/>
 <path id="rect12166" d="m0 0v12h1v-11h8v11h1v-12h-10z" color="#000000" fill="#2d2d2d"/>
</svg>

<?xml version="1.0" encoding="UTF-8" standalone="no"?>
<!-- Created with Inkscape (http://www.inkscape.org/) -->

<svg
   xmlns:dc="http://purl.org/dc/elements/1.1/"
   xmlns:cc="http://creativecommons.org/ns#"
   xmlns:rdf="http://www.w3.org/1999/02/22-rdf-syntax-ns#"
   xmlns:svg="http://www.w3.org/2000/svg"
   xmlns="http://www.w3.org/2000/svg"
   version="1.1"
   width="10"
   height="12"
   id="svg17740">
  <defs
     id="defs17742" />
  <metadata
     id="metadata17745">
    <rdf:RDF>
      <cc:Work
         rdf:about="">
        <dc:format>image/svg+xml</dc:format>
        <dc:type
           rdf:resource="http://purl.org/dc/dcmitype/StillImage" />
        <dc:title></dc:title>
      </cc:Work>
    </rdf:RDF>
  </metadata>
  <rect
     width="10"
     height="12"
     x="0"
     y="0"
     id="rect12208"
     style="color:#000000;fill:#0f0f0f;fill-opacity:1;fill-rule:nonzero;stroke:none;stroke-width:0.36000001;marker:none;visibility:visible;display:inline;overflow:visible;enable-background:accumulate" />
  <path
     d="m 2,1.9999999 6,0 0,1 -6,0 z"
     id="rect18271-8"
     style="color:#000000;fill:#4c1616;fill-opacity:1;fill-rule:nonzero;stroke:none;stroke-width:0.36000001;marker:none;visibility:visible;display:inline;overflow:visible;enable-background:accumulate" />
  <path
     d="m 2,3.9999999 6,0 0,1 -6,0 z"
     id="rect18271-0"
     style="color:#000000;fill:#4c1616;fill-opacity:1;fill-rule:nonzero;stroke:none;stroke-width:0.36000001;marker:none;visibility:visible;display:inline;overflow:visible;enable-background:accumulate" />
  <path
     d="m 2,5.9999999 6,0 0,1 -6,0 z"
     id="rect18271-8-1"
     style="color:#000000;fill:#4c1616;fill-opacity:1;fill-rule:nonzero;stroke:none;stroke-width:0.36000001;marker:none;visibility:visible;display:inline;overflow:visible;enable-background:accumulate" />
  <path
     d="m 2,8.0000001 6,0 L 8,9 2,9 z"
     id="rect18271-0-7"
     style="color:#000000;fill:#4c1616;fill-opacity:1;fill-rule:nonzero;stroke:none;stroke-width:0.36000001;marker:none;visibility:visible;display:inline;overflow:visible;enable-background:accumulate" />
  <path
     d="m 2,10 6,0 0,1 -6,0 z"
     id="rect18271-8-1-9"
     style="color:#000000;fill:#4c1616;fill-opacity:1;fill-rule:nonzero;stroke:none;stroke-width:0.36000001;marker:none;visibility:visible;display:inline;overflow:visible;enable-background:accumulate" />
  <path
     d="M 0,0 0,12 1,12 1,1 9,1 9,12 10,12 10,0 0,0 z"
     id="rect12166"
     style="color:#000000;fill:#2d2d2d;fill-opacity:1;fill-rule:nonzero;stroke:none;stroke-width:0.36000001;marker:none;visibility:visible;display:inline;overflow:visible;enable-background:accumulate" />
</svg>
